public/Gitlab.svg

<svg width="136" height="48" viewBox="0 0 136 48" fill="none" xmlns="http://www.w3.org/2000/svg">
<g clip-path="url(#clip0_106_211)">
<path d="M98.4337 14.0516H95.7616V34.0575H106.602V31.5731H98.4337V14.0516ZM116.921 30.5489C116.248 31.2462 115.118 31.9436 113.597 31.9436C111.555 31.9436 110.73 30.9411 110.73 29.6118C110.73 27.6286 112.098 26.6697 115.031 26.6697C115.574 26.6697 116.465 26.7351 116.921 26.8223V30.5489ZM114.162 18.432C111.99 18.432 110.013 19.1947 108.47 20.4805L109.426 22.1368C110.512 21.5048 111.859 20.851 113.793 20.851C115.987 20.851 116.965 21.9842 116.965 23.8802V24.8609C116.53 24.7737 115.661 24.7083 115.096 24.7083C110.404 24.7083 108.036 26.3646 108.036 29.8079C108.036 32.9025 109.926 34.4498 112.794 34.4498C114.727 34.4498 116.574 33.5563 117.204 32.1179L117.682 34.0793H119.572V23.8366C119.55 20.5895 118.138 18.432 114.162 18.432ZM128.196 32.0526C127.197 32.0526 126.306 31.9218 125.633 31.6167V22.3765C126.545 21.6137 127.675 21.0689 129.109 21.0689C131.694 21.0689 132.693 22.8995 132.693 25.8634C132.715 30.0694 131.086 32.0526 128.196 32.0526ZM129.326 18.432C126.936 18.432 125.633 20.0664 125.633 20.0664V17.4731V14.0516H123.004V33.5781C124.308 34.1229 126.111 34.428 128.066 34.428C133.062 34.428 135.474 31.2244 135.474 25.689C135.474 21.3304 133.258 18.432 129.326 18.432ZM69.2795 16.2309C71.6474 16.2309 73.1899 17.0154 74.1892 17.8218L75.3406 15.8168C73.7764 14.4438 71.6474 13.7029 69.4098 13.7029C63.718 13.7029 59.7207 17.1898 59.7207 24.2071C59.7207 31.5731 64.0221 34.4498 68.9536 34.4498C71.4302 34.4498 73.5157 33.8614 74.8844 33.2948L74.8192 25.4275V22.9213H67.4981V25.4057H72.1688L72.234 31.377C71.6257 31.6821 70.5612 31.9218 69.1274 31.9218C65.1735 31.9218 62.5232 29.4156 62.5232 24.1635C62.5232 18.8242 65.2604 16.2309 69.2795 16.2309ZM88.1363 14.0516H85.5076V17.4077V29.0233C85.5076 32.2705 86.9197 34.428 90.8953 34.428C91.4384 34.428 91.9815 34.3844 92.5029 34.2755V31.9218C92.1336 31.9872 91.7208 32.009 91.2863 32.009C89.0922 32.009 88.1146 30.8757 88.1146 28.9798V20.9817H92.5029V18.8024H88.1146L88.1363 14.0516ZM78.86 34.0575H81.4886V18.8024H78.86V34.0575ZM78.86 16.6885H81.4886V14.0516H78.86V16.6885Z" fill="#888F9B"/>
<path d="M23.8099 46L32.5866 18.9331H15.0332L23.8099 46Z" fill="#D74B3A"/>
<path d="M23.8098 46L15.0331 18.9331H2.75879L23.8098 46Z" fill="#F36F3C"/>
<path d="M2.75921 18.9331L0.0871002 27.1491C-0.151869 27.89 0.108825 28.7181 0.738834 29.1758L23.7885 45.9782L2.75921 18.9331Z" fill="#F3993F"/>
<path d="M2.75879 18.9331H15.0548L9.75406 2.63195C9.49337 1.78203 8.29852 1.78203 8.03783 2.63195L2.75879 18.9331Z" fill="#D74B3A"/>
<path d="M23.81 46L32.5867 18.9332H44.8827L23.81 46Z" fill="#F36F3C"/>
<path d="M44.8613 18.9331L47.5334 27.1491C47.7724 27.89 47.5117 28.7181 46.8817 29.1758L23.832 45.9782L44.8613 18.9331Z" fill="#F3993F"/>
<path d="M44.861 18.9332H32.5649L37.844 2.63202C38.1264 1.80389 39.2995 1.80389 39.5602 2.63202L44.861 18.9332Z" fill="#D74B3A"/>
</g>
<defs>
<clipPath id="clip0_106_211">
<rect width="136" height="48" fill="white"/>
</clipPath>
</defs>
</svg>

<svg width="136" height="48" fill="none" xmlns="http://www.w3.org/2000/svg"><g clip-path="url(#a)"><path d="M98.434 14.052h-2.672v20.005h10.84v-2.484h-8.168V14.052Zm18.487 16.497a4.596 4.596 0 0 1-3.324 1.395c-2.042 0-2.867-1.003-2.867-2.332 0-1.983 1.368-2.942 4.301-2.942.543 0 1.434.065 1.89.152v3.727Zm-2.759-12.117a8.837 8.837 0 0 0-5.692 2.049l.956 1.656c1.086-.632 2.433-1.286 4.367-1.286 2.194 0 3.172 1.133 3.172 3.03v.98c-.435-.087-1.304-.153-1.869-.153-4.692 0-7.06 1.657-7.06 5.1 0 3.095 1.89 4.642 4.758 4.642 1.933 0 3.78-.894 4.41-2.332l.478 1.961h1.89V23.837c-.022-3.247-1.434-5.405-5.41-5.405Zm14.034 13.62c-.999 0-1.89-.13-2.563-.435v-9.24c.912-.763 2.042-1.308 3.476-1.308 2.585 0 3.584 1.83 3.584 4.794.022 4.206-1.607 6.19-4.497 6.19Zm1.13-13.62c-2.39 0-3.693 1.634-3.693 1.634v-6.014h-2.629v19.526c1.304.545 3.107.85 5.062.85 4.996 0 7.408-3.204 7.408-8.739 0-4.359-2.216-7.257-6.148-7.257ZM69.28 16.231c2.367 0 3.91.784 4.91 1.59l1.15-2.004c-1.564-1.373-3.693-2.114-5.93-2.114-5.692 0-9.69 3.487-9.69 10.504 0 7.366 4.302 10.243 9.234 10.243 2.476 0 4.562-.589 5.93-1.155l-.065-7.868v-2.506H67.5v2.485h4.67l.065 5.971c-.608.305-1.673.545-3.107.545-3.953 0-6.604-2.506-6.604-7.759 0-5.339 2.737-7.932 6.756-7.932Zm18.856-2.18h-2.628v14.973c0 3.247 1.412 5.405 5.387 5.405a7.89 7.89 0 0 0 1.608-.152v-2.354c-.37.065-.782.087-1.217.087-2.194 0-3.171-1.133-3.171-3.03v-7.997h4.388v-2.18h-4.388l.021-4.75ZM78.86 34.058h2.629V18.802H78.86v15.255Zm0-17.369h2.629v-2.636H78.86v2.637Z" fill="#888F9B"/><path d="m23.81 46 8.777-27.067H15.033L23.81 46Z" fill="#D74B3A"/><path d="m23.81 46-8.777-27.067H2.76L23.809 46Z" fill="#F36F3C"/><path d="M2.76 18.933.086 27.15c-.239.741.022 1.57.652 2.027l23.05 16.802-21.03-27.045Z" fill="#F3993F"/><path d="M2.759 18.933h12.296l-5.3-16.301c-.262-.85-1.456-.85-1.717 0l-5.28 16.301Z" fill="#D74B3A"/><path d="m23.81 46 8.777-27.067h12.296L23.81 46Z" fill="#F36F3C"/><path d="m44.861 18.933 2.672 8.216a1.824 1.824 0 0 1-.651 2.027l-23.05 16.802 21.03-27.045Z" fill="#F3993F"/><path d="M44.861 18.933H32.565l5.279-16.301c.282-.828 1.456-.828 1.716 0l5.301 16.301Z" fill="#D74B3A"/></g><defs><clipPath id="a"><path fill="#fff" d="M0 0h136v48H0z"/></clipPath></defs></svg>
